Numix/16/status/indicator-keyboard-Lv-6.svg

<?xml version="1.0" encoding="UTF-8" standalone="no"?>
<svg
   xmlns:dc="http://purl.org/dc/elements/1.1/"
   xmlns:cc="http://creativecommons.org/ns#"
   xmlns:rdf="http://www.w3.org/1999/02/22-rdf-syntax-ns#"
   xmlns:svg="http://www.w3.org/2000/svg"
   xmlns="http://www.w3.org/2000/svg"
   xmlns:sodipodi="http://sodipodi.sourceforge.net/DTD/sodipodi-0.dtd"
   xmlns:inkscape="http://www.inkscape.org/namespaces/inkscape"
   viewBox="0 0 16 16"
   id="svg2"
   version="1.1"
   inkscape:version="0.91 r13725"
   sodipodi:docname="indicator-keyboard-Lv-6.svg">
  <metadata
     id="metadata14">
    <rdf:RDF>
      <cc:Work
         rdf:about="">
        <dc:format>image/svg+xml</dc:format>
        <dc:type
           rdf:resource="http://purl.org/dc/dcmitype/StillImage" />
      </cc:Work>
    </rdf:RDF>
  </metadata>
  <defs
     id="defs12" />
  <sodipodi:namedview
     pagecolor="#ffffff"
     bordercolor="#666666"
     borderopacity="1"
     objecttolerance="10"
     gridtolerance="10"
     guidetolerance="10"
     inkscape:pageopacity="0"
     inkscape:pageshadow="2"
     inkscape:window-width="640"
     inkscape:window-height="480"
     id="namedview10"
     showgrid="false"
     inkscape:zoom="14.75"
     inkscape:cx="8"
     inkscape:cy="8"
     inkscape:window-x="65"
     inkscape:window-y="24"
     inkscape:window-maximized="0"
     inkscape:current-layer="svg2" />
  <path
     style="fill:#ececec;fill-opacity:1"
     d="M 1.5996094 0 C 0.71320937 2.9605947e-16 0 0.71320937 0 1.5996094 L 0 14.400391 C 2.9605947e-16 15.286791 0.71320937 16 1.5996094 16 L 14.400391 16 C 15.286791 16 16 15.286791 16 14.400391 L 16 1.5996094 C 16 0.71320937 15.286791 0 14.400391 0 L 1.5996094 0 z M 2.6425781 4.859375 L 3.2539062 4.859375 L 3.2539062 10.564453 L 6.1875 10.564453 L 6.1875 11.095703 L 2.6425781 11.095703 L 2.6425781 4.859375 z M 6.265625 6.4433594 L 6.8867188 6.4433594 C 6.9587188 6.7613594 7.0464375 7.10275 7.1484375 7.46875 C 7.2564375 7.82875 7.3702344 8.1888281 7.4902344 8.5488281 C 7.6162344 8.9028281 7.7449531 9.2479844 7.8769531 9.5839844 C 8.0089531 9.9139846 8.1376719 10.208797 8.2636719 10.466797 C 8.3896719 10.208797 8.5183906 9.9139846 8.6503906 9.5839844 C 8.7823906 9.2479844 8.9092969 8.9028281 9.0292969 8.5488281 C 9.1552969 8.1888281 9.2690938 7.82875 9.3710938 7.46875 C 9.4790937 7.10275 9.568625 6.7613594 9.640625 6.4433594 L 10.226562 6.4433594 C 10.118562 6.8693594 9.9972345 7.289125 9.8652344 7.703125 C 9.7332344 8.117125 9.5933594 8.5219688 9.4433594 8.9179688 C 9.2993594 9.3139687 9.146375 9.6945467 8.984375 10.060547 C 8.828375 10.426547 8.6753906 10.771703 8.5253906 11.095703 L 7.9667969 11.095703 C 7.8107969 10.771703 7.6540469 10.426547 7.4980469 10.060547 C 7.3420469 9.6945467 7.1890625 9.3139688 7.0390625 8.9179688 C 6.8950625 8.5219688 6.757 8.117125 6.625 7.703125 C 6.493 7.289125 6.373625 6.8693594 6.265625 6.4433594 z M 13.089844 8.8242188 L 13.113281 9.1464844 C 12.875381 9.1620844 12.653972 9.1993125 12.451172 9.2578125 C 12.252272 9.3124125 12.075922 9.4005844 11.919922 9.5214844 C 11.763922 9.6384843 11.632644 9.7893625 11.527344 9.9765625 C 11.422044 10.163763 11.349547 10.394969 11.310547 10.667969 C 11.415847 10.613369 11.543206 10.566344 11.691406 10.527344 C 11.839606 10.484444 11.996362 10.462891 12.164062 10.462891 C 12.382462 10.462891 12.568603 10.498159 12.720703 10.568359 C 12.872803 10.634659 12.996244 10.722838 13.089844 10.835938 C 13.183444 10.949037 13.250069 11.080316 13.292969 11.228516 C 13.335869 11.376716 13.357422 11.533466 13.357422 11.697266 C 13.357422 11.849366 13.333909 12.000244 13.287109 12.152344 C 13.240309 12.304444 13.167806 12.443559 13.066406 12.568359 C 12.968906 12.689259 12.843506 12.789188 12.691406 12.867188 C 12.543206 12.945188 12.364903 12.984375 12.158203 12.984375 C 11.733103 12.984375 11.409799 12.835463 11.1875 12.539062 C 10.9691 12.238762 10.859375 11.821409 10.859375 11.287109 C 10.859375 10.495409 11.049435 9.8958281 11.427734 9.4863281 C 11.809934 9.0768281 12.364444 8.8554188 13.089844 8.8242188 z M 12.128906 10.794922 C 11.949506 10.794922 11.79275 10.816475 11.65625 10.859375 C 11.52365 10.898375 11.39825 10.9454 11.28125 11 C 11.27345 11.0663 11.269531 11.119203 11.269531 11.158203 L 11.269531 11.292969 C 11.269531 11.476269 11.281287 11.650653 11.304688 11.814453 C 11.331988 11.978253 11.379012 12.121294 11.445312 12.246094 C 11.515513 12.370894 11.607603 12.470822 11.720703 12.544922 C 11.833803 12.615122 11.976844 12.650391 12.152344 12.650391 C 12.296644 12.650391 12.420084 12.624919 12.521484 12.574219 C 12.622884 12.519619 12.705178 12.449081 12.767578 12.363281 C 12.829978 12.277481 12.875044 12.177553 12.902344 12.064453 C 12.933544 11.951353 12.949219 11.833784 12.949219 11.708984 C 12.949219 11.396984 12.878681 11.165778 12.738281 11.017578 C 12.601781 10.869378 12.398006 10.794922 12.128906 10.794922 z "
     id="path4" />
</svg>

<svg xmlns="http://www.w3.org/2000/svg" viewBox="0 0 16 16">
 <path d="m 1.6 0 c -0.886 0 -1.6 0.713 -1.6 1.6 l 0 12.801 c 0 0.886 0.713 1.6 1.6 1.6 l 12.801 0 c 0.886 0 1.6 -0.713 1.6 -1.6 l 0 -12.801 c 0 -0.886 -0.713 -1.6 -1.6 -1.6 l -12.801 0 z m 1.043 4.859 l 0.611 0 l 0 5.705 l 2.934 0 l 0 0.531 l -3.545 0 l 0 -6.236 z m 3.623 1.584 l 0.621 0 c 0.072 0.318 0.16 0.659 0.262 1.025 c 0.108 0.36 0.222 0.72 0.342 1.08 c 0.126 0.354 0.255 0.699 0.387 1.035 c 0.132 0.33 0.261 0.625 0.387 0.883 c 0.126 -0.258 0.255 -0.553 0.387 -0.883 c 0.132 -0.336 0.259 -0.681 0.379 -1.035 c 0.126 -0.36 0.24 -0.72 0.342 -1.08 c 0.108 -0.366 0.198 -0.707 0.27 -1.025 l 0.586 0 c -0.108 0.426 -0.229 0.846 -0.361 1.26 c -0.132 0.414 -0.272 0.819 -0.422 1.215 c -0.144 0.396 -0.297 0.777 -0.459 1.143 c -0.156 0.366 -0.309 0.711 -0.459 1.035 l -0.559 0 c -0.156 -0.324 -0.313 -0.669 -0.469 -1.035 c -0.156 -0.366 -0.309 -0.747 -0.459 -1.143 c -0.144 -0.396 -0.282 -0.801 -0.414 -1.215 c -0.132 -0.414 -0.251 -0.834 -0.359 -1.26 z m 6.824 2.381 l 0.023 0.322 c -0.238 0.016 -0.459 0.053 -0.662 0.111 c -0.199 0.055 -0.375 0.143 -0.531 0.264 c -0.156 0.117 -0.287 0.268 -0.393 0.455 c -0.105 0.187 -0.178 0.418 -0.217 0.691 c 0.105 -0.055 0.233 -0.102 0.381 -0.141 c 0.148 -0.043 0.305 -0.064 0.473 -0.064 c 0.218 0 0.405 0.035 0.557 0.105 c 0.152 0.066 0.276 0.154 0.369 0.268 c 0.094 0.113 0.16 0.244 0.203 0.393 c 0.043 0.148 0.064 0.305 0.064 0.469 c 0 0.152 -0.024 0.303 -0.07 0.455 c -0.047 0.152 -0.119 0.291 -0.221 0.416 c -0.098 0.121 -0.223 0.221 -0.375 0.299 c -0.148 0.078 -0.327 0.117 -0.533 0.117 c -0.425 0 -0.748 -0.149 -0.971 -0.445 c -0.218 -0.3 -0.328 -0.718 -0.328 -1.252 c 0 -0.792 0.19 -1.391 0.568 -1.801 c 0.382 -0.409 0.937 -0.631 1.662 -0.662 z m -0.961 1.971 c -0.179 0 -0.336 0.022 -0.473 0.064 c -0.133 0.039 -0.258 0.086 -0.375 0.141 c -0.008 0.066 -0.012 0.119 -0.012 0.158 l 0 0.135 c 0 0.183 0.012 0.358 0.035 0.521 c 0.027 0.164 0.074 0.307 0.141 0.432 c 0.07 0.125 0.162 0.225 0.275 0.299 c 0.113 0.07 0.256 0.105 0.432 0.105 c 0.144 0 0.268 -0.025 0.369 -0.076 c 0.101 -0.055 0.184 -0.125 0.246 -0.211 c 0.062 -0.086 0.107 -0.186 0.135 -0.299 c 0.031 -0.113 0.047 -0.231 0.047 -0.355 c 0 -0.312 -0.071 -0.543 -0.211 -0.691 c -0.136 -0.148 -0.34 -0.223 -0.609 -0.223 z" style="fill:#ececec;fill-opacity:1"/>
</svg>
